; G-Code generated by Simplify3D(R) Version 4.0.0
; Jun 13, 2024 at 8:19:16 PM
; Settings Summary
;   processName,Process1
;   applyToModels,Body681
;   profileName,prusa_acril_rec
;   profileVersion,2024-06-13 20:01:30
;   baseProfile,Default (modified)
;   printMaterial,PLA
;   printQuality,High
;   printExtruders,
;   extruderName,Primary Extruder
;   extruderToolheadNumber,0
;   extruderDiameter,0.4
;   extruderAutoWidth,0
;   extruderWidth,0.4
;   extrusionMultiplier,1
;   extruderUseRetract,1
;   extruderRetractionDistance,2.5
;   extruderExtraRestartDistance,0
;   extruderRetractionZLift,0
;   extruderRetractionSpeed,1500
;   extruderUseCoasting,1
;   extruderCoastingDistance,0.4
;   extruderUseWipe,1
;   extruderWipeDistance,3
;   primaryExtruder,0
;   layerHeight,0.2
;   topSolidLayers,5
;   bottomSolidLayers,5
;   perimeterOutlines,3
;   printPerimetersInsideOut,1
;   startPointOption,3
;   startPointOriginX,105
;   startPointOriginY,200
;   sequentialIslands,0
;   spiralVaseMode,0
;   firstLayerHeightPercentage,120
;   firstLayerWidthPercentage,110
;   firstLayerUnderspeed,0.5
;   useRaft,0
;   raftExtruder,0
;   raftTopLayers,2
;   raftBaseLayers,1
;   raftOffset,3
;   raftSeparationDistance,0.14
;   raftTopInfill,100
;   aboveRaftSpeedMultiplier,0.3
;   useSkirt,1
;   skirtExtruder,0
;   skirtLayers,1
;   skirtOutlines,3
;   skirtOffset,5
;   usePrimePillar,0
;   primePillarExtruder,999
;   primePillarWidth,12
;   primePillarLocation,7
;   primePillarSpeedMultiplier,1
;   useOozeShield,0
;   oozeShieldExtruder,999
;   oozeShieldOffset,2
;   oozeShieldOutlines,1
;   oozeShieldSidewallShape,1
;   oozeShieldSidewallAngle,30
;   oozeShieldSpeedMultiplier,1
;   infillExtruder,0
;   internalInfillPattern,Triangular
;   externalInfillPattern,Rectilinear
;   infillPercentage,10
;   outlineOverlapPercentage,25
;   infillExtrusionWidthPercentage,110
;   minInfillLength,1
;   infillLayerInterval,1
;   internalInfillAngles,0,60,-60
;   overlapInternalInfillAngles,1
;   externalInfillAngles,45,-45
;   generateSupport,1
;   supportExtruder,0
;   supportInfillPercentage,20
;   supportExtraInflation,1
;   supportBaseLayers,1
;   denseSupportExtruder,0
;   denseSupportLayers,0
;   denseSupportInfillPercentage,40
;   supportLayerInterval,1
;   supportHorizontalPartOffset,0.8
;   supportUpperSeparationLayers,1
;   supportLowerSeparationLayers,1
;   supportType,0
;   supportGridSpacing,1
;   maxOverhangAngle,89
;   supportAngles,90
;   temperatureName,Primary Extruder,Primary bed
;   temperatureNumber,0,0
;   temperatureSetpointCount,1,1
;   temperatureSetpointLayers,1,1
;   temperatureSetpointTemperatures,210,60
;   temperatureStabilizeAtStartup,1,1
;   temperatureHeatedBed,0,1
;   temperatureRelayBetweenLayers,0,0
;   temperatureRelayBetweenLoops,0,0
;   fanLayers,0,3,5
;   fanSpeeds,0,50,100
;   blipFanToFullPower,0
;   adjustSpeedForCooling,1
;   minSpeedLayerTime,5
;   minCoolingSpeedSlowdown,6
;   increaseFanForCooling,0
;   minFanLayerTime,10
;   maxCoolingFanSpeed,100
;   increaseFanForBridging,0
;   bridgingFanSpeed,100
;   use5D,1
;   relativeEdistances,0
;   allowEaxisZeroing,1
;   independentExtruderAxes,0
;   includeM10123,0
;   stickySupport,1
;   applyToolheadOffsets,0
;   gcodeXoffset,0
;   gcodeYoffset,10
;   gcodeZoffset,0
;   overrideMachineDefinition,1
;   machineTypeOverride,0
;   strokeXoverride,220
;   strokeYoverride,220
;   strokeZoverride,170
;   originOffsetXoverride,0
;   originOffsetYoverride,0
;   originOffsetZoverride,0
;   homeXdirOverride,-1
;   homeYdirOverride,-1
;   homeZdirOverride,-1
;   flipXoverride,1
;   flipYoverride,-1
;   flipZoverride,1
;   toolheadOffsets,0,0|0,0|0,0|0,0|0,0|0,0
;   overrideFirmwareConfiguration,0
;   firmwareTypeOverride,RepRap (Marlin/Repetier/Sprinter)
;   GPXconfigOverride,r2
;   baudRateOverride,115200
;   overridePrinterModels,0
;   printerModelsOverride
;   startingGcode,G21        ;metric values,G90        ;absolute positioning,M82        ;set extruder to absolute mode,M107       ;start with the fan off,G28 X0 Y0  ;move X/Y to min endstops,G28 Z0     ;move Z to min endstops,G1 Z5 F300 ;move the platform down 15mm,G1 X100 Y100 F5000,;Put printing message on LCD screen,M117 Printing...
;   layerChangeGcode,
;   retractionGcode,
;   toolChangeGcode,
;   endingGcode,M104 S0                     ;extruder heater off,M140 S0                     ;heated bed heater off (if you have it),G91                                    ;relative positioning,G1 E-1 F300                            ;retract the filament a bit before lifting the nozzle to release some of the pressure,G1 Z+4 E-5 X-20 Y-20 F{travel_speed} ;move Z up a bit and retract filament even more,G1 Z10 F1000 ,G28 X0                              ;move X/Y to min endstops so the head is out of the way,G90 ,G1 Y200 F2000 ,M107,M84                         ;steppers off
;   exportFileFormat,gcode
;   celebration,0
;   celebrationSong,Star Wars
;   postProcessing,
;   defaultSpeed,3000
;   outlineUnderspeed,0.6
;   solidInfillUnderspeed,0.8
;   supportUnderspeed,0.8
;   rapidXYspeed,7200
;   rapidZspeed,1200
;   minBridgingArea,100
;   bridgingExtraInflation,0
;   bridgingExtrusionMultiplier,1
;   bridgingSpeedMultiplier,1
;   useFixedBridgingAngle,0
;   fixedBridgingAngle,0
;   applyBridgingToPerimeters,0
;   filamentDiameters,1.75|1.75|1.75|1.75|1.75|1.75
;   filamentPricesPerKg,1000|1000|1000|1000|1000|1000
;   filamentDensities,1.24|1.25|1.25|1.25|1.25|1.25
;   useMinPrintHeight,0
;   minPrintHeight,53.9
;   useMaxPrintHeight,0
;   maxPrintHeight,10
;   useDiaphragm,0
;   diaphragmLayerInterval,30
;   robustSlicing,1
;   mergeAllIntoSolid,0
;   onlyRetractWhenCrossingOutline,0
;   retractBetweenLayers,1
;   useRetractionMinTravel,1
;   retractionMinTravel,2
;   retractWhileWiping,0
;   onlyWipeOutlines,1
;   avoidCrossingOutline,0
;   maxMovementDetourFactor,999
;   toolChangeRetractionDistance,6
;   toolChangeExtraRestartDistance,1
;   toolChangeRetractionSpeed,1800
;   externalThinWallType,0
;   internalThinWallType,1
;   thinWallAllowedOverlapPercentage,10
;   singleExtrusionMinLength,1
;   singleExtrusionMinPrintingWidthPercentage,50
;   singleExtrusionMaxPrintingWidthPercentage,200
;   singleExtrusionEndpointExtension,0.2
;   horizontalSizeCompensation,-0.1
G90
M82
M140 S60
M190 S60
M104 S210 T0
M109 S210 T0
G21        ;metric values
G90        ;absolute positioning
M82        ;set extruder to absolute mode
M107       ;start with the fan off
G28 X0 Y0  ;move X/Y to min endstops
G28 Z0     ;move Z to min endstops
G1 Z5 F300 ;move the platform down 15mm
G1 X100 Y100 F5000
;Put printing message on LCD screen
M117 Printing...
G92 E0
G1 E-2.5000 F1500
G1 Z0.240 F1200
; process Process1
; layer 1, Z = 0.240
T0
; tool H0.240 W0.440
; skirt
G1 X28.757 Y87.062 F7200
G1 E0.0000 F450
G92 E0
G1 X29.048 Y86.960 E0.0135 F1500
G1 X29.075 Y86.952 E0.0148
G1 X29.899 Y86.714 E0.0524
G1 X29.926 Y86.707 E0.0536
G1 X30.226 Y86.639 E0.0672
G1 X30.254 Y86.633 E0.0684
G1 X31.099 Y86.490 E0.1060
G1 X31.127 Y86.486 E0.1073
G1 X31.434 Y86.451 E0.1208
G1 X31.462 Y86.449 E0.1221
G1 X32.318 Y86.401 E0.1597
G1 X32.346 Y86.400 E0.1609
G1 X32.654 Y86.400 E0.1745
G1 X32.682 Y86.401 E0.1757
G1 X33.539 Y86.449 E0.2134
G1 X33.567 Y86.451 E0.2146
G1 X33.874 Y86.486 E0.2282
G1 X33.901 Y86.490 E0.2294
G1 X34.747 Y86.634 E0.2671
G1 X34.775 Y86.639 E0.2683
G1 X35.076 Y86.708 E0.2819
G1 X35.103 Y86.715 E0.2831
G1 X35.928 Y86.952 E0.3208
G1 X35.955 Y86.961 E0.3220
G1 X36.246 Y87.063 E0.3355
G1 X36.272 Y87.073 E0.3368
G1 X37.065 Y87.401 E0.3744
G1 X37.090 Y87.413 E0.3757
G1 X37.368 Y87.546 E0.3892
G1 X37.393 Y87.559 E0.3904
G1 X38.144 Y87.974 E0.4281
G1 X38.168 Y87.989 E0.4293
G1 X38.430 Y88.153 E0.4429
G1 X38.453 Y88.168 E0.4441
G1 X39.153 Y88.665 E0.4818
G1 X39.175 Y88.682 E0.4830
G1 X39.417 Y88.874 E0.4966
G1 X39.438 Y88.892 E0.4978
G1 X40.078 Y89.464 E0.5355
G1 X40.098 Y89.484 E0.5367
G1 X40.317 Y89.702 E0.5503
G1 X40.336 Y89.722 E0.5515
G1 X40.908 Y90.362 E0.5892
G1 X40.926 Y90.383 E0.5904
G1 X41.118 Y90.625 E0.6040
G1 X41.135 Y90.647 E0.6052
G1 X41.631 Y91.347 E0.6429
G1 X41.647 Y91.370 E0.6441
G1 X41.811 Y91.632 E0.6577
G1 X41.825 Y91.656 E0.6589
G1 X42.241 Y92.407 E0.6966
G1 X42.253 Y92.432 E0.6978
G1 X42.387 Y92.710 E0.7113
G1 X42.399 Y92.735 E0.7126
G1 X42.727 Y93.528 E0.7502
G1 X42.737 Y93.554 E0.7515
G1 X42.839 Y93.846 E0.7650
G1 X42.848 Y93.872 E0.7663
G1 X43.085 Y94.697 E0.8039
G1 X43.092 Y94.724 E0.8052
G1 X43.161 Y95.025 E0.8187
G1 X43.166 Y95.052 E0.8199
G1 X43.310 Y95.899 E0.8576
G1 X43.314 Y95.926 E0.8588
G1 X43.349 Y96.233 E0.8724
G1 X43.351 Y96.261 E0.8736
G1 X43.395 Y97.043 E0.9080
G1 X43.395 Y97.057 E0.9086
G1 X43.400 Y97.212 E0.9154
G1 X43.400 Y97.226 E0.9160
G1 X43.400 Y136.800 E2.6535
G1 X63.600 Y136.800 E3.5403
G1 X63.600 Y97.223 E5.2779
G1 X63.600 Y97.208 E5.2785
G1 X63.605 Y97.048 E5.2856
G1 X63.605 Y97.034 E5.2862
G1 X63.653 Y96.222 E5.3219
G1 X63.655 Y96.193 E5.3232
G1 X63.692 Y95.876 E5.3372
G1 X63.697 Y95.847 E5.3385
G1 X63.851 Y94.971 E5.3776
G1 X63.857 Y94.942 E5.3788
G1 X63.931 Y94.631 E5.3929
G1 X63.938 Y94.603 E5.3942
G1 X64.194 Y93.750 E5.4332
G1 X64.203 Y93.722 E5.4345
G1 X64.312 Y93.422 E5.4486
G1 X64.323 Y93.395 E5.4498
G1 X64.675 Y92.577 E5.4889
G1 X64.688 Y92.551 E5.4902
G1 X64.831 Y92.265 E5.5042
G1 X64.845 Y92.239 E5.5055
G1 X65.290 Y91.469 E5.5446
G1 X65.305 Y91.444 E5.5459
G1 X65.481 Y91.177 E5.5599
G1 X65.498 Y91.153 E5.5612
G1 X66.029 Y90.439 E5.6003
G1 X66.047 Y90.416 E5.6015
G1 X66.253 Y90.171 E5.6156
G1 X66.272 Y90.149 E5.6169
G1 X66.883 Y89.502 E5.6559
G1 X66.904 Y89.482 E5.6572
G1 X67.137 Y89.262 E5.6713
G1 X67.158 Y89.243 E5.6725
G1 X67.840 Y88.671 E5.7116
G1 X67.863 Y88.653 E5.7129
G1 X68.119 Y88.461 E5.7269
G1 X68.143 Y88.445 E5.7282
G1 X68.887 Y87.956 E5.7673
G1 X68.912 Y87.940 E5.7686
G1 X69.189 Y87.780 E5.7826
G1 X69.214 Y87.767 E5.7839
G1 X70.009 Y87.367 E5.8230
G1 X70.036 Y87.355 E5.8242
G1 X70.330 Y87.228 E5.8383
G1 X70.357 Y87.217 E5.8396
G1 X71.193 Y86.913 E5.8786
G1 X71.221 Y86.904 E5.8799
G1 X71.527 Y86.812 E5.8940
G1 X71.555 Y86.805 E5.8952
G1 X72.421 Y86.599 E5.9343
G1 X72.450 Y86.594 E5.9356
G1 X72.765 Y86.538 E5.9496
G1 X72.794 Y86.534 E5.9509
G1 X73.677 Y86.430 E5.9900
G1 X73.706 Y86.428 E5.9913
G1 X74.026 Y86.409 E6.0053
G1 X74.055 Y86.408 E6.0066
G1 X74.945 Y86.408 E6.0457
G1 X74.974 Y86.409 E6.0469
G1 X75.294 Y86.428 E6.0610
G1 X75.323 Y86.430 E6.0623
G1 X76.206 Y86.534 E6.1013
G1 X76.235 Y86.538 E6.1026
G1 X76.550 Y86.594 E6.1167
G1 X76.579 Y86.599 E6.1179
G1 X77.445 Y86.805 E6.1570
G1 X77.473 Y86.812 E6.1583
G1 X77.779 Y86.904 E6.1723
G1 X77.807 Y86.913 E6.1736
G1 X78.643 Y87.217 E6.2127
G1 X78.670 Y87.228 E6.2140
G1 X78.964 Y87.355 E6.2280
G1 X78.990 Y87.367 E6.2293
G1 X79.786 Y87.767 E6.2683
G1 X79.811 Y87.780 E6.2696
G1 X80.088 Y87.940 E6.2837
G1 X80.113 Y87.956 E6.2850
G1 X80.857 Y88.445 E6.3240
G1 X80.881 Y88.461 E6.3253
G1 X81.137 Y88.653 E6.3394
G1 X81.160 Y88.671 E6.3406
G1 X81.842 Y89.242 E6.3797
G1 X81.863 Y89.262 E6.3810
G1 X82.096 Y89.481 E6.3950
G1 X82.117 Y89.502 E6.3963
G1 X82.728 Y90.149 E6.4354
G1 X82.747 Y90.171 E6.4366
G1 X82.953 Y90.416 E6.4507
G1 X82.971 Y90.439 E6.4520
G1 X83.502 Y91.153 E6.4910
G1 X83.519 Y91.177 E6.4923
G1 X83.695 Y91.444 E6.5064
G1 X83.710 Y91.469 E6.5077
G1 X84.155 Y92.239 E6.5467
G1 X84.169 Y92.265 E6.5480
G1 X84.312 Y92.551 E6.5620
G1 X84.325 Y92.577 E6.5633
G1 X84.677 Y93.395 E6.6024
G1 X84.688 Y93.422 E6.6037
G1 X84.797 Y93.723 E6.6177
G1 X84.806 Y93.750 E6.6190
G1 X85.062 Y94.603 E6.6581
G1 X85.069 Y94.631 E6.6594
G1 X85.143 Y94.942 E6.6734
G1 X85.149 Y94.971 E6.6747
G1 X85.303 Y95.847 E6.7137
G1 X85.308 Y95.876 E6.7150
G1 X85.345 Y96.193 E6.7291
G1 X85.347 Y96.222 E6.7303
G1 X85.394 Y97.034 E6.7660
G1 X85.395 Y97.048 E6.7667
G1 X85.400 Y97.208 E6.7737
G1 X85.400 Y97.223 E6.7743
G1 X85.400 Y136.800 E8.5119
G1 X134.600 Y136.800 E10.6719
G1 X134.600 Y97.223 E12.4095
G1 X134.600 Y97.208 E12.4102
G1 X134.605 Y97.049 E12.4172
G1 X134.606 Y97.034 E12.4178
G1 X134.653 Y96.223 E12.4535
G1 X134.655 Y96.194 E12.4548
G1 X134.692 Y95.876 E12.4688
G1 X134.697 Y95.847 E12.4701
G1 X134.851 Y94.970 E12.5092
G1 X134.857 Y94.942 E12.5105
G1 X134.931 Y94.631 E12.5245
G1 X134.938 Y94.603 E12.5258
G1 X135.194 Y93.750 E12.5648
G1 X135.203 Y93.723 E12.5661
G1 X135.312 Y93.422 E12.5802
G1 X135.323 Y93.395 E12.5814
G1 X135.675 Y92.577 E12.6205
G1 X135.688 Y92.551 E12.6218
G1 X135.831 Y92.265 E12.6359
G1 X135.845 Y92.239 E12.6371
G1 X136.290 Y91.469 E12.6762
G1 X136.305 Y91.444 E12.6775
G1 X136.481 Y91.177 E12.6915
G1 X136.498 Y91.153 E12.6928
G1 X137.029 Y90.439 E12.7319
G1 X137.047 Y90.416 E12.7331
G1 X137.253 Y90.171 E12.7472
G1 X137.272 Y90.149 E12.7485
G1 X137.883 Y89.502 E12.7875
G1 X137.904 Y89.482 E12.7888
G1 X138.137 Y89.262 E12.8029
G1 X138.158 Y89.243 E12.8041
G1 X138.840 Y88.671 E12.8432
G1 X138.863 Y88.653 E12.8445
G1 X139.119 Y88.461 E12.8585
G1 X139.143 Y88.445 E12.8598
G1 X139.887 Y87.956 E12.8989
G1 X139.911 Y87.940 E12.9002
G1 X140.189 Y87.780 E12.9142
G1 X140.214 Y87.767 E12.9155
G1 X141.010 Y87.367 E12.9546
G1 X141.036 Y87.355 E12.9558
G1 X141.330 Y87.228 E12.9699
G1 X141.357 Y87.217 E12.9712
G1 X142.193 Y86.913 E13.0102
G1 X142.221 Y86.904 E13.0115
G1 X142.527 Y86.812 E13.0256
G1 X142.555 Y86.805 E13.0268
G1 X143.421 Y86.599 E13.0659
G1 X143.450 Y86.594 E13.0672
G1 X143.765 Y86.538 E13.0812
G1 X143.794 Y86.534 E13.0825
G1 X144.677 Y86.430 E13.1216
G1 X144.706 Y86.428 E13.1229
G1 X145.026 Y86.409 E13.1369
G1 X145.055 Y86.408 E13.1382
G1 X145.945 Y86.408 E13.1773
G1 X145.974 Y86.409 E13.1785
G1 X146.294 Y86.428 E13.1926
G1 X146.323 Y86.430 E13.1939
G1 X147.206 Y86.534 E13.2329
G1 X147.235 Y86.538 E13.2342
G1 X147.550 Y86.594 E13.2483
G1 X147.579 Y86.599 E13.2495
G1 X148.445 Y86.805 E13.2886
G1 X148.473 Y86.812 E13.2899
G1 X148.779 Y86.904 E13.3039
G1 X148.807 Y86.913 E13.3052
G1 X149.643 Y87.217 E13.3443
G1 X149.670 Y87.228 E13.3456
G1 X149.964 Y87.355 E13.3596
G1 X149.991 Y87.367 E13.3609
G1 X150.786 Y87.767 E13.4000
G1 X150.811 Y87.780 E13.4012
G1 X151.089 Y87.940 E13.4153
G1 X151.113 Y87.956 E13.4166
G1 X151.857 Y88.445 E13.4556
G1 X151.881 Y88.461 E13.4569
G1 X152.137 Y88.653 E13.4710
G1 X152.160 Y88.671 E13.4722
G1 X152.842 Y89.243 E13.5113
G1 X152.863 Y89.262 E13.5126
G1 X153.096 Y89.481 E13.5266
G1 X153.117 Y89.502 E13.5279
G1 X153.728 Y90.149 E13.5670
G1 X153.747 Y90.171 E13.5683
G1 X153.953 Y90.417 E13.5823
G1 X153.971 Y90.439 E13.5836
G1 X154.502 Y91.153 E13.6227
G1 X154.519 Y91.177 E13.6239
G1 X154.695 Y91.444 E13.6380
G1 X154.710 Y91.469 E13.6393
G1 X155.155 Y92.239 E13.6783
G1 X155.169 Y92.265 E13.6796
G1 X155.312 Y92.551 E13.6937
G1 X155.324 Y92.577 E13.6949
G1 X155.677 Y93.394 E13.7340
G1 X155.688 Y93.422 E13.7353
G1 X155.797 Y93.722 E13.7493
G1 X155.806 Y93.750 E13.7506
G1 X156.062 Y94.602 E13.7897
G1 X156.069 Y94.631 E13.7910
G1 X156.143 Y94.942 E13.8050
G1 X156.149 Y94.971 E13.8063
G1 X156.303 Y95.847 E13.8454
G1 X156.308 Y95.876 E13.8466
G1 X156.345 Y96.194 E13.8607
G1 X156.347 Y96.222 E13.8620
G1 X156.394 Y97.034 E13.8976
G1 X156.395 Y97.048 E13.8983
G1 X156.400 Y97.208 E13.9053
G1 X156.400 Y97.223 E13.9059
G1 X156.400 Y136.800 E15.6435
G1 X176.600 Y136.800 E16.5304
G1 X176.600 Y97.226 E18.2678
G1 X176.600 Y97.212 E18.2684
G1 X176.605 Y97.057 E18.2752
G1 X176.605 Y97.043 E18.2758
G1 X176.649 Y96.261 E18.3102
G1 X176.651 Y96.233 E18.3114
G1 X176.686 Y95.926 E18.3250
G1 X176.690 Y95.898 E18.3262
G1 X176.834 Y95.052 E18.3639
G1 X176.839 Y95.025 E18.3651
