; G-Code generated by Simplify3D(R) Version 4.0.0
; Jun 16, 2024 at 5:23:13 PM
; Settings Summary
;   processName,Process1
;   applyToModels,T
;   profileName,Ender2 (modified)
;   profileVersion,2024-06-15 13:08:54
;   baseProfile,Default (modified)
;   printMaterial,PLA
;   printQuality,High
;   printExtruders,
;   extruderName,Primary Extruder
;   extruderToolheadNumber,0
;   extruderDiameter,0.4
;   extruderAutoWidth,0
;   extruderWidth,0.4
;   extrusionMultiplier,1
;   extruderUseRetract,1
;   extruderRetractionDistance,3
;   extruderExtraRestartDistance,0
;   extruderRetractionZLift,0
;   extruderRetractionSpeed,1500
;   extruderUseCoasting,0
;   extruderCoastingDistance,0.2
;   extruderUseWipe,0
;   extruderWipeDistance,4
;   primaryExtruder,0
;   layerHeight,0.2
;   topSolidLayers,5
;   bottomSolidLayers,5
;   perimeterOutlines,3
;   printPerimetersInsideOut,1
;   startPointOption,3
;   startPointOriginX,0
;   startPointOriginY,165
;   sequentialIslands,0
;   spiralVaseMode,0
;   firstLayerHeightPercentage,150
;   firstLayerWidthPercentage,120
;   firstLayerUnderspeed,0.5
;   useRaft,0
;   raftExtruder,0
;   raftTopLayers,1
;   raftBaseLayers,1
;   raftOffset,3
;   raftSeparationDistance,0.14
;   raftTopInfill,100
;   aboveRaftSpeedMultiplier,0.3
;   useSkirt,0
;   skirtExtruder,0
;   skirtLayers,1
;   skirtOutlines,3
;   skirtOffset,5
;   usePrimePillar,0
;   primePillarExtruder,999
;   primePillarWidth,12
;   primePillarLocation,7
;   primePillarSpeedMultiplier,1
;   useOozeShield,0
;   oozeShieldExtruder,999
;   oozeShieldOffset,2
;   oozeShieldOutlines,1
;   oozeShieldSidewallShape,1
;   oozeShieldSidewallAngle,30
;   oozeShieldSpeedMultiplier,1
;   infillExtruder,0
;   internalInfillPattern,Rectilinear
;   externalInfillPattern,Rectilinear
;   infillPercentage,25
;   outlineOverlapPercentage,30
;   infillExtrusionWidthPercentage,100
;   minInfillLength,5
;   infillLayerInterval,1
;   internalInfillAngles,45,-45
;   overlapInternalInfillAngles,0
;   externalInfillAngles,45,-45
;   generateSupport,1
;   supportExtruder,0
;   supportInfillPercentage,20
;   supportExtraInflation,1
;   supportBaseLayers,0
;   denseSupportExtruder,0
;   denseSupportLayers,0
;   denseSupportInfillPercentage,40
;   supportLayerInterval,1
;   supportHorizontalPartOffset,0.6
;   supportUpperSeparationLayers,1
;   supportLowerSeparationLayers,1
;   supportType,0
;   supportGridSpacing,1
;   maxOverhangAngle,45
;   supportAngles,90
;   temperatureName,Primary Extruder,Primary bed
;   temperatureNumber,0,0
;   temperatureSetpointCount,1,1
;   temperatureSetpointLayers,1,1
;   temperatureSetpointTemperatures,200,60
;   temperatureStabilizeAtStartup,1,1
;   temperatureHeatedBed,0,1
;   temperatureRelayBetweenLayers,0,0
;   temperatureRelayBetweenLoops,0,0
;   fanLayers,0,3,5
;   fanSpeeds,0,50,100
;   blipFanToFullPower,0
;   adjustSpeedForCooling,1
;   minSpeedLayerTime,5
;   minCoolingSpeedSlowdown,6
;   increaseFanForCooling,0
;   minFanLayerTime,10
;   maxCoolingFanSpeed,100
;   increaseFanForBridging,0
;   bridgingFanSpeed,100
;   use5D,1
;   relativeEdistances,0
;   allowEaxisZeroing,1
;   independentExtruderAxes,0
;   includeM10123,0
;   stickySupport,1
;   applyToolheadOffsets,0
;   gcodeXoffset,0
;   gcodeYoffset,0
;   gcodeZoffset,0
;   overrideMachineDefinition,1
;   machineTypeOverride,0
;   strokeXoverride,165
;   strokeYoverride,165
;   strokeZoverride,165
;   originOffsetXoverride,0
;   originOffsetYoverride,0
;   originOffsetZoverride,0
;   homeXdirOverride,-1
;   homeYdirOverride,-1
;   homeZdirOverride,-1
;   flipXoverride,1
;   flipYoverride,-1
;   flipZoverride,1
;   toolheadOffsets,0,0|0,0|0,0|0,0|0,0|0,0
;   overrideFirmwareConfiguration,0
;   firmwareTypeOverride,RepRap (Marlin/Repetier/Sprinter)
;   GPXconfigOverride,r2
;   baudRateOverride,115200
;   overridePrinterModels,0
;   printerModelsOverride
;   startingGcode,G21        ;metric values,G90        ;absolute positioning,M82        ;set extruder to absolute mode,M107       ;start with the fan off,G28 X0 Y0  ;move X/Y to min endstops,G28 Z0     ;move Z to min endstops,G1 Z5 F300 ;move the platform down 15mm,G1 X82 Y82 F5000,;Put printing message on LCD screen,M117 Printing...
;   layerChangeGcode,
;   retractionGcode,
;   toolChangeGcode,
;   endingGcode,M104 S0                     ;extruder heater off,M140 S0                     ;heated bed heater off (if you have it),G91                                    ;relative positioning,G1 E-1 F300                            ;retract the filament a bit before lifting the nozzle to release some of the pressure,G1 Z+4 E-5 X-20 Y-20 F{travel_speed} ;move Z up a bit and retract filament even more,G1 Z10 F1000 ,G28 X0                              ;move X/Y to min endstops so the head is out of the way,G90 ,G1 Y200 F2000 ,M107,M84                         ;steppers off
;   exportFileFormat,gcode
;   celebration,0
;   celebrationSong,Star Wars
;   postProcessing,
;   defaultSpeed,3600
;   outlineUnderspeed,0.5
;   solidInfillUnderspeed,0.5
;   supportUnderspeed,0.8
;   rapidXYspeed,6000
;   rapidZspeed,1200
;   minBridgingArea,50
;   bridgingExtraInflation,0
;   bridgingExtrusionMultiplier,1
;   bridgingSpeedMultiplier,1
;   useFixedBridgingAngle,0
;   fixedBridgingAngle,0
;   applyBridgingToPerimeters,0
;   filamentDiameters,1.75|1.75|1.75|1.75|1.75|1.75
;   filamentPricesPerKg,1000|1000|1000|1000|1000|1000
;   filamentDensities,1.24|1.25|1.25|1.25|1.25|1.25
;   useMinPrintHeight,0
;   minPrintHeight,53.9
;   useMaxPrintHeight,0
;   maxPrintHeight,10
;   useDiaphragm,0
;   diaphragmLayerInterval,30
;   robustSlicing,1
;   mergeAllIntoSolid,0
;   onlyRetractWhenCrossingOutline,0
;   retractBetweenLayers,1
;   useRetractionMinTravel,1
;   retractionMinTravel,2
;   retractWhileWiping,0
;   onlyWipeOutlines,1
;   avoidCrossingOutline,0
;   maxMovementDetourFactor,999
;   toolChangeRetractionDistance,6
;   toolChangeExtraRestartDistance,1
;   toolChangeRetractionSpeed,1800
;   externalThinWallType,0
;   internalThinWallType,1
;   thinWallAllowedOverlapPercentage,10
;   singleExtrusionMinLength,1
;   singleExtrusionMinPrintingWidthPercentage,50
;   singleExtrusionMaxPrintingWidthPercentage,200
;   singleExtrusionEndpointExtension,0.2
;   horizontalSizeCompensation,-0.1
G90
M82
M140 S60
M190 S60
M104 S200 T0
M109 S200 T0
G21        ;metric values
G90        ;absolute positioning
M82        ;set extruder to absolute mode
M107       ;start with the fan off
G28 X0 Y0  ;move X/Y to min endstops
G28 Z0     ;move Z to min endstops
G1 Z5 F300 ;move the platform down 15mm
G1 X82 Y82 F5000
;Put printing message on LCD screen
M117 Printing...
G92 E0
G1 E-3.0000 F1500
G1 Z0.300 F1200
; process Process1
; layer 1, Z = 0.300
T0
; tool H0.300 W0.480
; inner perimeter
G1 X4.800 Y12.703 F6000
G1 E0.0000 F450
G92 E0
G1 X4.800 Y10.807 E0.1135 F1350
G1 X160.200 Y10.807 E9.4170
G1 X160.200 Y12.703 E9.5305
G1 X91.457 Y12.703 E13.6460
G1 X90.677 Y12.754 E13.6929
G1 X89.869 Y12.915 E13.7422
G1 X89.088 Y13.180 E13.7916
G1 X88.349 Y13.544 E13.8409
G1 X87.663 Y14.002 E13.8903
G1 X87.043 Y14.546 E13.9396
G1 X86.500 Y15.166 E13.9890
G1 X86.042 Y15.851 E14.0384
G1 X85.677 Y16.591 E14.0877
G1 X85.412 Y17.371 E14.1371
G1 X85.251 Y18.180 E14.1864
G1 X85.202 Y18.923 E14.2310
G1 X84.798 Y18.923 E14.2553
G1 X84.749 Y18.184 E14.2996
G1 X84.587 Y17.366 E14.3495
G1 X84.323 Y16.591 E14.3986
G1 X83.962 Y15.857 E14.4475
G1 X83.509 Y15.178 E14.4964
G1 X82.956 Y14.545 E14.5467
G1 X82.318 Y13.989 E14.5974
G1 X81.640 Y13.538 E14.6461
G1 X80.912 Y13.180 E14.6947
G1 X80.146 Y12.919 E14.7432
G1 X79.353 Y12.759 E14.7916
G1 X78.545 Y12.703 E14.8401
G1 X4.800 Y12.703 E19.2551
G92 E0
G1 E-3.0000 F1500
G1 X84.320 Y154.179 F6000
G1 E0.0000 F1500
G92 E0
G1 X84.319 Y18.963 E8.0951 F1350
G1 X84.272 Y18.247 E8.1381
G1 X84.122 Y17.491 E8.1843
G1 X83.879 Y16.775 E8.2295
G1 X83.545 Y16.098 E8.2747
G1 X83.127 Y15.470 E8.3199
G1 X82.616 Y14.886 E8.3663
G1 X82.026 Y14.371 E8.4132
G1 X81.400 Y13.955 E8.4582
G1 X80.728 Y13.624 E8.5031
G1 X80.020 Y13.383 E8.5478
G1 X79.289 Y13.235 E8.5925
G1 X78.528 Y13.183 E8.6381
G1 X4.320 Y13.183 E13.0809
G1 X4.320 Y10.327 E13.2518
G1 X160.680 Y10.327 E22.6128
G1 X160.680 Y13.183 E22.7838
G1 X91.473 Y13.183 E26.9271
G1 X90.740 Y13.231 E26.9711
G1 X89.993 Y13.379 E27.0167
G1 X89.272 Y13.624 E27.0623
G1 X88.589 Y13.961 E27.1079
G1 X87.956 Y14.384 E27.1535
G1 X87.383 Y14.886 E27.1991
G1 X86.881 Y15.458 E27.2446
G1 X86.458 Y16.092 E27.2902
G1 X86.121 Y16.775 E27.3358
G1 X85.877 Y17.496 E27.3814
G1 X85.728 Y18.243 E27.4270
G1 X85.680 Y18.976 E27.4710
G1 X85.680 Y154.179 E35.5654
G1 X84.320 Y154.179 E35.6468
; outer perimeter
G1 X83.840 Y154.659 F6000
G92 E0
G1 X83.839 Y18.979 E8.1229 F900
G1 X83.796 Y18.310 E8.1631
G1 X83.657 Y17.615 E8.2054
G1 X83.434 Y16.959 E8.2470
G1 X83.128 Y16.338 E8.2884
G1 X82.745 Y15.762 E8.3298
G1 X82.276 Y15.226 E8.3725
G1 X81.735 Y14.754 E8.4155
G1 X81.160 Y14.372 E8.4568
G1 X80.544 Y14.068 E8.4979
G1 X79.895 Y13.847 E8.5389
G1 X79.225 Y13.712 E8.5799
G1 X78.512 Y13.663 E8.6227
G1 X3.840 Y13.663 E13.0931
G1 X3.840 Y9.847 E13.3216
G1 X161.160 Y9.847 E22.7401
G1 X161.160 Y13.663 E22.9685
G1 X91.489 Y13.663 E27.1396
G1 X90.803 Y13.707 E27.1808
G1 X90.118 Y13.844 E27.2226
G1 X89.456 Y14.068 E27.2644
G1 X88.830 Y14.377 E27.3062
G1 X88.249 Y14.765 E27.3481
G1 X87.724 Y15.226 E27.3899
G1 X87.263 Y15.751 E27.4317
G1 X86.875 Y16.332 E27.4735
G1 X86.566 Y16.959 E27.5154
G1 X86.341 Y17.620 E27.5572
G1 X86.205 Y18.305 E27.5990
G1 X86.160 Y18.991 E27.6402
G1 X86.160 Y154.659 E35.7623
G1 X83.840 Y154.659 E35.9012
G92 E0
G1 E-3.0000 F1500
; solid layer
G1 X84.783 Y16.901 F6000
G1 E0.0000 F1500
G92 E0
G1 X85.107 Y17.225 E0.0274 F900
G1 X85.279 Y16.718 E0.0594
G1 X84.257 Y15.695 E0.1460
G92 E0
G1 E-3.0000 F1500
G1 X159.805 Y11.143 F6000
G1 E0.0000 F1500
G92 E0
G1 X159.864 Y11.202 E0.0050 F900
G1 X159.864 Y11.881 E0.0457
G1 X159.126 Y11.143 E0.1082
G1 X158.447 Y11.143 E0.1488
G1 X159.671 Y12.367 E0.2524
G1 X158.992 Y12.367 E0.2931
G1 X157.768 Y11.143 E0.3967
G1 X157.089 Y11.143 E0.4373
G1 X158.313 Y12.367 E0.5410
G1 X157.635 Y12.367 E0.5816
G1 X156.411 Y11.143 E0.6853
G1 X155.732 Y11.143 E0.7259
G1 X156.956 Y12.367 E0.8295
G1 X156.277 Y12.367 E0.8702
G1 X155.053 Y11.143 E0.9738
G1 X154.374 Y11.143 E1.0144
G1 X155.598 Y12.367 E1.1181
G1 X154.919 Y12.367 E1.1587
G1 X153.695 Y11.143 E1.2624
G1 X153.016 Y11.143 E1.3030
G1 X154.240 Y12.367 E1.4066
G1 X153.562 Y12.367 E1.4473
G1 X152.338 Y11.143 E1.5509
G1 X151.659 Y11.143 E1.5915
G1 X152.883 Y12.367 E1.6952
G1 X152.204 Y12.367 E1.7358
G1 X150.980 Y11.143 E1.8395
G1 X150.301 Y11.143 E1.8801
G1 X151.525 Y12.367 E1.9837
G1 X150.846 Y12.367 E2.0244
G1 X149.622 Y11.143 E2.1280
G1 X148.944 Y11.143 E2.1686
G1 X150.168 Y12.367 E2.2723
G1 X149.489 Y12.367 E2.3129
G1 X148.265 Y11.143 E2.4165
G1 X147.586 Y11.143 E2.4572
G1 X148.810 Y12.367 E2.5608
G1 X148.131 Y12.367 E2.6015
G1 X146.907 Y11.143 E2.7051
G1 X146.228 Y11.143 E2.7457
G1 X147.452 Y12.367 E2.8494
G1 X146.773 Y12.367 E2.8900
G1 X145.549 Y11.143 E2.9936
G1 X144.871 Y11.143 E3.0343
G1 X146.095 Y12.367 E3.1379
G1 X145.416 Y12.367 E3.1786
G1 X144.192 Y11.143 E3.2822
G1 X143.513 Y11.143 E3.3228
G1 X144.737 Y12.367 E3.4265
G1 X144.058 Y12.367 E3.4671
G1 X142.834 Y11.143 E3.5707
G1 X142.155 Y11.143 E3.6114
G1 X143.379 Y12.367 E3.7150
G1 X142.700 Y12.367 E3.7557
G1 X141.476 Y11.143 E3.8593
G1 X140.798 Y11.143 E3.8999
G1 X142.022 Y12.367 E4.0036
G1 X141.343 Y12.367 E4.0442
G1 X140.119 Y11.143 E4.1478
G1 X139.440 Y11.143 E4.1885
G1 X140.664 Y12.367 E4.2921
G1 X139.985 Y12.367 E4.3328
G1 X138.761 Y11.143 E4.4364
G1 X138.082 Y11.143 E4.4770
G1 X139.306 Y12.367 E4.5807
G1 X138.628 Y12.367 E4.6213
G1 X137.404 Y11.143 E4.7249
G1 X136.725 Y11.143 E4.7656
G1 X137.949 Y12.367 E4.8692
G1 X137.270 Y12.367 E4.9098
G1 X136.046 Y11.143 E5.0135
G1 X135.367 Y11.143 E5.0541
G1 X136.591 Y12.367 E5.1578
G1 X135.912 Y12.367 E5.1984
G1 X134.688 Y11.143 E5.3020
G1 X134.009 Y11.143 E5.3427
G1 X135.233 Y12.367 E5.4463
G1 X134.555 Y12.367 E5.4869
G1 X133.331 Y11.143 E5.5906
G1 X132.652 Y11.143 E5.6312
G1 X133.876 Y12.367 E5.7349
G1 X133.197 Y12.367 E5.7755
G1 X131.973 Y11.143 E5.8791
G1 X131.294 Y11.143 E5.9198
G1 X132.518 Y12.367 E6.0234
G1 X131.839 Y12.367 E6.0640
G1 X130.615 Y11.143 E6.1677
G1 X129.936 Y11.143 E6.2083
G1 X131.161 Y12.367 E6.3120
G1 X130.482 Y12.367 E6.3526
G1 X129.258 Y11.143 E6.4562
G1 X128.579 Y11.143 E6.4969
G1 X129.803 Y12.367 E6.6005
G1 X129.124 Y12.367 E6.6411
G1 X127.900 Y11.143 E6.7448
G1 X127.221 Y11.143 E6.7854
G1 X128.445 Y12.367 E6.8890
G1 X127.766 Y12.367 E6.9297
G1 X126.542 Y11.143 E7.0333
G1 X125.864 Y11.143 E7.0740
G1 X127.088 Y12.367 E7.1776
G1 X126.409 Y12.367 E7.2182
G1 X125.185 Y11.143 E7.3219
G1 X124.506 Y11.143 E7.3625
G1 X125.730 Y12.367 E7.4661
G1 X125.051 Y12.367 E7.5068
G1 X123.827 Y11.143 E7.6104
G1 X123.148 Y11.143 E7.6511
G1 X124.372 Y12.367 E7.7547
G1 X123.693 Y12.367 E7.7953
G1 X122.469 Y11.143 E7.8990
G1 X121.791 Y11.143 E7.9396
G1 X123.015 Y12.367 E8.0432
G1 X122.336 Y12.367 E8.0839
G1 X121.112 Y11.143 E8.1875
G1 X120.433 Y11.143 E8.2282
G1 X121.657 Y12.367 E8.3318
G1 X120.978 Y12.367 E8.3724
G1 X119.754 Y11.143 E8.4761
G1 X119.075 Y11.143 E8.5167
G1 X120.299 Y12.367 E8.6203
G1 X119.621 Y12.367 E8.6610
G1 X118.396 Y11.143 E8.7646
G1 X117.718 Y11.143 E8.8053
G1 X118.942 Y12.367 E8.9089
G1 X118.263 Y12.367 E8.9495
G1 X117.039 Y11.143 E9.0532
G1 X116.360 Y11.143 E9.0938
G1 X117.584 Y12.367 E9.1974
G1 X116.905 Y12.367 E9.2381
G1 X115.681 Y11.143 E9.3417
G1 X115.002 Y11.143 E9.3824
G1 X116.226 Y12.367 E9.4860
G1 X115.548 Y12.367 E9.5266
G1 X114.324 Y11.143 E9.6303
G1 X113.645 Y11.143 E9.6709
G1 X114.869 Y12.367 E9.7745
G1 X114.190 Y12.367 E9.8152
G1 X112.966 Y11.143 E9.9188
G1 X112.287 Y11.143 E9.9594
G1 X113.511 Y12.367 E10.0631
G1 X112.832 Y12.367 E10.1037
G1 X111.608 Y11.143 E10.2074
G1 X110.929 Y11.143 E10.2480
G1 X112.153 Y12.367 E10.3516
G1 X111.475 Y12.367 E10.3923
G1 X110.251 Y11.143 E10.4959
G1 X109.572 Y11.143 E10.5365
G1 X110.796 Y12.367 E10.6402
G1 X110.117 Y12.367 E10.6808
G1 X108.893 Y11.143 E10.7845
G1 X108.214 Y11.143 E10.8251
G1 X109.438 Y12.367 E10.9287
G1 X108.759 Y12.367 E10.9694
G1 X107.535 Y11.143 E11.0730
G1 X106.857 Y11.143 E11.1136
G1 X108.081 Y12.367 E11.2173
G1 X107.402 Y12.367 E11.2579
G1 X106.178 Y11.143 E11.3615
G1 X105.499 Y11.143 E11.4022
G1 X106.723 Y12.367 E11.5058
G1 X106.044 Y12.367 E11.5465
G1 X104.820 Y11.143 E11.6501
G1 X104.141 Y11.143 E11.6907
G1 X105.365 Y12.367 E11.7944
G1 X104.686 Y12.367 E11.8350
G1 X103.462 Y11.143 E11.9386
G1 X102.784 Y11.143 E11.9793
G1 X104.008 Y12.367 E12.0829
G1 X103.329 Y12.367 E12.1236
G1 X102.105 Y11.143 E12.2272
G1 X101.426 Y11.143 E12.2678
G1 X102.650 Y12.367 E12.3715
G1 X101.971 Y12.367 E12.4121
G1 X100.747 Y11.143 E12.5157
G1 X100.068 Y11.143 E12.5564
G1 X101.292 Y12.367 E12.6600
G1 X100.613 Y12.367 E12.7007
G1 X99.389 Y11.143 E12.8043
G1 X98.711 Y11.143 E12.8449
G1 X99.935 Y12.367 E12.9486
G1 X99.256 Y12.367 E12.9892
G1 X98.032 Y11.143 E13.0928
G1 X97.353 Y11.143 E13.1335
G1 X98.577 Y12.367 E13.2371
G1 X97.898 Y12.367 E13.2778
G1 X96.674 Y11.143 E13.3814
G1 X95.995 Y11.143 E13.4220
G1 X97.219 Y12.367 E13.5257
G1 X96.541 Y12.367 E13.5663
G1 X95.317 Y11.143 E13.6699
G1 X94.638 Y11.143 E13.7106
G1 X95.862 Y12.367 E13.8142
G1 X95.183 Y12.367 E13.8549
G1 X93.959 Y11.143 E13.9585
G1 X93.280 Y11.143 E13.9991
G1 X94.504 Y12.367 E14.1028
G1 X93.825 Y12.367 E14.1434
G1 X92.601 Y11.143 E14.2470
G1 X91.922 Y11.143 E14.2877
